X:18841
T:Winnie Hayes'
R:Jig
S:
H:
N:
D:Milltown Malbay Concertina Recital
Z:Adrian Scahill
M:6/8
L:1/8
K:G
edB AeA|BAG ABd|edB ABc|BAG ABd|\
edB AeA|BAG A2a|age deg|age dBA:||\
efg aea|bag (3aba g|(3ege b aea|bd'b gab|\
c'3 bd'b|age a2b|age deg|age dBA:||


